img/linkedin.svg

<svg width="30" height="30" viewBox="0 0 30 30" fill="none" xmlns="http://www.w3.org/2000/svg">
<path d="M11.0243 8.507C11.0241 8.96744 10.841 9.40894 10.5152 9.73436C10.1895 10.0598 9.74778 10.2425 9.28734 10.2422C8.82689 10.242 8.3854 10.0589 8.05997 9.73313C7.73455 9.40739 7.55186 8.96571 7.55209 8.50526C7.55232 8.04482 7.73546 7.60332 8.0612 7.2779C8.38695 6.95248 8.82863 6.76979 9.28907 6.77002C9.74952 6.77025 10.191 6.95338 10.5164 7.27913C10.8419 7.60488 11.0245 8.04655 11.0243 8.507ZM11.0764 11.5278H7.60418V22.3959H11.0764V11.5278ZM16.5625 11.5278H13.1076V22.3959H16.5278V16.6928C16.5278 13.5157 20.6684 13.2205 20.6684 16.6928V22.3959H24.0972V15.5122C24.0972 10.1563 17.9688 10.356 16.5278 12.9862L16.5625 11.5278Z" fill="#9CAFAA"/>
<circle cx="15" cy="15" r="14.5" stroke="#9CAFAA"/>
</svg>

<svg width="30" height="30" viewBox="0 0 30 30" fill="none" xmlns="http://www.w3.org/2000/svg">
  <path d="M11.024 8.507a1.736 1.736 0 1 1-3.471-.001 1.736 1.736 0 0 1 3.471.001m.052 3.02H7.604v10.869h3.472zm5.486 0h-3.454v10.869h3.42v-5.703c0-3.177 4.14-3.473 4.14 0v5.703h3.43v-6.884c0-5.356-6.13-5.156-7.57-2.526z" fill="#9CAFAA"/>
  <circle cx="15" cy="15" r="14.5" stroke="#9CAFAA"/>
</svg>
